X:1
T:Title
%%score 1 { 2 | 3 }
L:1/8
Q:1/4=95
M:4/4
K:A
V:1 treble nm="Grand Piano, Soprano"
V:2 treble nm="Choir Pad, Hatk to the Crying!"
V:3 bass 
V:1
 E2 [EA]2 [EA]>[EA] [EG][EG]- | [EG][EG] [Ed]2 [Ed]>[Ed] [Ec][Ec]- | %2
w: By~William~A.~May * * * * *||
 [Ec][Ec] [EB]2 [EB]>[EB] [Ge]2 | [Ge]>[Ge] [F^d]2 [Fd]>[Fd] [Ge]2 | E2 [EA]2 [EA]>[EA] [EG][EG]- | %5
w: |||
 [EG][EG] [Ed]2 [Ed]>[Ed] [Ec][Ec]- | [Ec][Ec] [EB]2 [EB]>[EB] [^DB]2 | %7
w: ||
 [^DA]>[DA] [DG]2 [DF]>[DF] E2 | [CE]2 [CA]2 [EA]>[EA] [EB][EB]- | %9
w: ||
 [EB][EB] [Ec]2 [Ec]>[Ec] [Fd][Fd]- | [Fd][Fd] [Ec]2 [EB]>[Ec] [Ed][Ec]- | %11
w: ||
 [Ec][EB] [EB]2 [E^A][EB] [Ec]2 | [CE]2 [CA]2 [EA]>[EA] [EB][EB]- | %13
w: ||
 [EB][EB] [Ec]2 [Ec]>[Ec] [Fd][Fd]- | [Fd][Fd] [Ec]2 [EB]>[EA] [Ee]2 | %15
w: ||
 [Ed]>[Ec] [EB]2 [Ec][DB] [CA]2- | [CA]6 z2 |] %17
w: ||
V:2
 C2 C2 C>C B,[K:bass]B,- | B,B, G,2 G,>G, A,A,- | A,A, G,2 G,>G, B,2 | B,>B, B,2 B,>B, B,2 | %4
 C2 C2 C>C B,[K:bass]B,- | B,B, G,2 G,>G, A,A,- | A,A, B,2 B,>B, B,2 | B,>B, B,2 B,>A, G,2 | %8
 A,2 A,2 A,>A, G,G,- | G,G, A,2 A,>A, A,A,- | A,A, A,2 G,>A, B,A,- | A,G, G,2 =G,^G, A,2 | %12
 A,2 A,2 A,>A, G,G,- | G,G, A,2 A,>A, A,A,- | A,A, A,2[K:treble] D>C C2 | %15
 B,>A,[K:bass] G,2 G,G, A,2- | A,6 z2 |] %17
V:3
 A,,2 A,,2 A,,>A,, E,E,- | E,E, E,2 E,>E, A,,A,,- | A,,A,, E,2 E,>E, E,2 | E,>E, B,,2 B,,>B,, E,2 | %4
 A,,2 A,,2 A,,>A,, E,E,- | E,E, E,2 E,>E, A,,A,,- | A,,2 G,2 G,>G, F,2 | F,>F, B,,2 B,,>B,, E,2 | %8
 A,,2 A,,2 C,>C, E,E,- | E,E, A,,2 A,,>A,, D,D,- | D,D, E,2 E,>E, E,E,- | E,E, E,2 E,E, A,,2 | %12
 A,,2 A,,2 C,>C, E,E,- | E,E, A,,2 A,,>A,, D,D,- | D,D, E,2 E,>E, E,2 | E,>E, E,2 E,E, A,,2- | %16
 A,,6 z2 |] %17

